X: 248
T: Zao nian jin
L: 1/8
M: 2/4
K: G
d d g/ a/ g/ e/ [I:setbarnb 1]| 
d4 | 
g2B A | 
G G/ B/ (3A G E | 
D4 | 
d> B d B | 
A EG2 | 
A A/ B/ (3A G E | 
d4 | 
E DE2 | 
A2d B | 
c A A G | 
A/ B/ A/ B/ A B | 
E D B, D | 
G> E E/ D/ B, | 
A4 |]

@@@ Tune index: 9122
